humanity-icon-theme/Humanity/actions/48/process-stop.svg

<?xml version="1.0" encoding="UTF-8" standalone="no"?>
<!-- Created with Inkscape (http://www.inkscape.org/) -->
<svg
   xmlns:svg="http://www.w3.org/2000/svg"
   xmlns="http://www.w3.org/2000/svg"
   xmlns:xlink="http://www.w3.org/1999/xlink"
   version="1.0"
   width="48"
   height="48"
   id="svg3258">
  <defs
     id="defs3260">
    <linearGradient
       id="linearGradient8838">
      <stop
         id="stop8840"
         style="stop-color:#000000;stop-opacity:1"
         offset="0" />
      <stop
         id="stop8842"
         style="stop-color:#000000;stop-opacity:0"
         offset="1" />
    </linearGradient>
    <radialGradient
       cx="62.625"
       cy="4.625"
       r="10.625"
       fx="62.625"
       fy="4.625"
       id="radialGradient3254"
       xlink:href="#linearGradient8838"
       gradientUnits="userSpaceOnUse"
       gradientTransform="matrix(2.1647059,0,0,0.7529402,-111.56471,36.517647)" />
    <linearGradient
       id="linearGradient2490">
      <stop
         id="stop2492"
         style="stop-color:#791235;stop-opacity:1"
         offset="0" />
      <stop
         id="stop2494"
         style="stop-color:#dd3b27;stop-opacity:1"
         offset="1" />
    </linearGradient>
    <linearGradient
       x1="18.379412"
       y1="44.980297"
       x2="18.379412"
       y2="3.0816143"
       id="linearGradient3251"
       xlink:href="#linearGradient2490"
       gradientUnits="userSpaceOnUse"
       gradientTransform="matrix(0.9584364,0,0,0.9584366,0.9975246,1.9975253)" />
    <linearGradient
       id="linearGradient3242">
      <stop
         id="stop3244"
         style="stop-color:#f8b17e;stop-opacity:1"
         offset="0" />
      <stop
         id="stop3246"
         style="stop-color:#e35d4f;stop-opacity:1"
         offset="0.26238" />
      <stop
         id="stop3248"
         style="stop-color:#c6262e;stop-opacity:1"
         offset="0.66093999" />
      <stop
         id="stop3250"
         style="stop-color:#690b54;stop-opacity:1"
         offset="1" />
    </linearGradient>
    <radialGradient
       cx="23.895569"
       cy="3.9900031"
       r="20.397499"
       fx="23.895569"
       fy="3.9900031"
       id="radialGradient3249"
       xlink:href="#linearGradient3242"
       gradientUnits="userSpaceOnUse"
       gradientTransform="matrix(0,2.2874593,-3.0194057,0,36.047437,-50.630156)" />
    <linearGradient
       id="linearGradient4873">
      <stop
         id="stop4875"
         style="stop-color:#ffffff;stop-opacity:1"
         offset="0" />
      <stop
         id="stop4877"
         style="stop-color:#ffffff;stop-opacity:0"
         offset="1" />
    </linearGradient>
    <linearGradient
       x1="63.397362"
       y1="-12.489107"
       x2="63.397362"
       y2="5.4675598"
       id="linearGradient3246"
       xlink:href="#linearGradient4873"
       gradientUnits="userSpaceOnUse"
       gradientTransform="matrix(2.1153735,0,0,2.1153253,-107.57709,32.426559)" />
  </defs>
  <g
     id="layer1">
    <path
       d="M 46.999997,40 C 46.999997,44.418278 36.702545,48 23.999997,48 C 11.297449,48 0.9999968,44.418278 0.9999968,40 C 0.9999968,35.581722 11.297449,32 23.999997,32 C 36.702545,32 46.999997,35.581722 46.999997,40 L 46.999997,40 z"
       id="path8836"
       style="opacity:0.3;fill:url(#radialGradient3254);fill-opacity:1;fill-rule:evenodd;stroke:none;stroke-width:0.99999988;stroke-linecap:butt;stroke-linejoin:round;marker:none;marker-start:none;marker-mid:none;marker-end:none;stroke-miterlimit:4;stroke-dasharray:none;stroke-dashoffset:0;stroke-opacity:1;visibility:visible;display:inline;overflow:visible" />
    <path
       d="M 24.000002,5.5018088 C 13.241573,5.5018088 4.5018088,14.24157 4.5018088,25 C 4.5018088,35.75843 13.241573,44.498195 24.000002,44.498192 C 34.758427,44.498192 43.498201,35.75843 43.498191,25 C 43.498191,14.24157 34.758427,5.5018088 24.000002,5.5018088 z"
       id="path2555"
       style="fill:url(#radialGradient3249);fill-opacity:1;stroke:url(#linearGradient3251);stroke-width:1.003654;stroke-linecap:round;stroke-linejoin:round;stroke-miterlimit:4;stroke-dasharray:none;stroke-dashoffset:0;stroke-opacity:1" />
    <path
       d="M 42.500002,24.999344 C 42.500002,35.216942 34.21666,43.5 24.000235,43.5 C 13.782875,43.5 5.5000003,35.216848 5.5000003,24.999344 C 5.5000003,14.782219 13.782875,6.5000001 24.000235,6.5000001 C 34.21666,6.5000001 42.500002,14.782219 42.500002,24.999344 L 42.500002,24.999344 z"
       id="path8655"
       style="opacity:0.4;fill:none;fill-opacity:1;fill-rule:nonzero;stroke:url(#linearGradient3246);stroke-width:1;stroke-miterlimit:4;stroke-dasharray:none;stroke-opacity:1" />
    <path
       d="M -33.28125,16.3125 L -36.25,19.28125 L -30.125,25.375 C -29.936832,25.56554 -29.936832,25.87196 -30.125,26.0625 L -36.25,32.15625 L -33.28125,35.125 L -27.1875,29.03125 C -26.99696,28.843082 -26.69054,28.843082 -26.5,29.03125 L -20.40625,35.125 L -17.4375,32.15625 L -23.53125,26.0625 C -23.719418,25.87196 -23.719418,25.56554 -23.53125,25.375 L -17.4375,19.28125 L -20.40625,16.3125 L -26.5,22.40625 C -26.69054,22.594418 -26.99696,22.594418 -27.1875,22.40625 L -33.28125,16.3125 z"
       transform="translate(50.84375,-2.1249996)"
       id="path3243"
       style="opacity:0.2;fill:#000000;fill-opacity:1;fill-rule:evenodd;stroke:none;stroke-width:1;stroke-linecap:round;stroke-linejoin:round;stroke-miterlimit:4;stroke-dasharray:none;stroke-opacity:1" />
    <path
       d="M -33.28125,16.3125 L -36.25,19.28125 L -30.125,25.375 C -29.936832,25.56554 -29.936832,25.87196 -30.125,26.0625 L -36.25,32.15625 L -33.28125,35.125 L -27.1875,29.03125 C -26.99696,28.843082 -26.69054,28.843082 -26.5,29.03125 L -20.40625,35.125 L -17.4375,32.15625 L -23.53125,26.0625 C -23.719418,25.87196 -23.719418,25.56554 -23.53125,25.375 L -17.4375,19.28125 L -20.40625,16.3125 L -26.5,22.40625 C -26.69054,22.594418 -26.99696,22.594418 -27.1875,22.40625 L -33.28125,16.3125 z"
       transform="translate(50.84375,-1.1249996)"
       id="path3256"
       style="fill:#ffffff;fill-opacity:1;fill-rule:evenodd;stroke:none;stroke-width:1;stroke-linecap:round;stroke-linejoin:round;stroke-miterlimit:4;stroke-dasharray:none;stroke-opacity:1" />
  </g>
</svg>

<?xml version="1.0" encoding="UTF-8" standalone="no"?>
<!-- Created with Inkscape (http://www.inkscape.org/) -->
<svg id="svg3258" xmlns="http://www.w3.org/2000/svg" height="48" width="48" version="1.0" xmlns:xlink="http://www.w3.org/1999/xlink">
 <defs id="defs3260">
  <radialGradient id="radialGradient3254" gradientUnits="userSpaceOnUse" cy="4.625" cx="62.625" gradientTransform="matrix(2.1647 0 0 .75294 -111.56 36.518)" r="10.625">
   <stop id="stop8840" offset="0"/>
   <stop id="stop8842" style="stop-opacity:0" offset="1"/>
  </radialGradient>
  <linearGradient id="linearGradient3251" y2="3.0816" gradientUnits="userSpaceOnUse" x2="18.379" gradientTransform="matrix(.95844 0 0 .95844 .99752 1.9975)" y1="44.98" x1="18.379">
   <stop id="stop2492" style="stop-color:#791235" offset="0"/>
   <stop id="stop2494" style="stop-color:#dd3b27" offset="1"/>
  </linearGradient>
  <radialGradient id="radialGradient3249" gradientUnits="userSpaceOnUse" cy="3.99" cx="23.896" gradientTransform="matrix(0 2.2875 -3.0194 0 36.047 -50.63)" r="20.397">
   <stop id="stop3244" style="stop-color:#f8b17e" offset="0"/>
   <stop id="stop3246" style="stop-color:#e35d4f" offset=".26238"/>
   <stop id="stop3248" style="stop-color:#c6262e" offset=".66094"/>
   <stop id="stop3250" style="stop-color:#690b54" offset="1"/>
  </radialGradient>
  <linearGradient id="linearGradient3246" y2="5.4676" gradientUnits="userSpaceOnUse" x2="63.397" gradientTransform="matrix(2.1154 0 0 2.1153 -107.58 32.427)" y1="-12.489" x1="63.397">
   <stop id="stop4875" style="stop-color:#fff" offset="0"/>
   <stop id="stop4877" style="stop-color:#fff;stop-opacity:0" offset="1"/>
  </linearGradient>
 </defs>
 <g id="layer1">
  <path id="path8836" style="opacity:.3;fill-rule:evenodd;fill:url(#radialGradient3254)" d="m47 40c0 4.418-10.297 8-23 8s-23-3.582-23-8 10.297-8 23-8 23 3.582 23 8z"/>
  <path id="path2555" style="stroke-linejoin:round;stroke:url(#linearGradient3251);stroke-linecap:round;stroke-width:1.0037;fill:url(#radialGradient3249)" d="m24 5.5018c-10.758 0-19.498 8.7402-19.498 19.498-0.0002 10.758 8.74 19.498 19.498 19.498s19.498-8.74 19.498-19.498-8.74-19.498-19.498-19.498z"/>
  <path id="path8655" style="opacity:.4;stroke:url(#linearGradient3246);fill:none" d="m42.5 24.999c0 10.218-8.283 18.501-18.5 18.501s-18.5-8.283-18.5-18.501c0-10.217 8.283-18.499 18.5-18.499s18.5 8.282 18.5 18.499z"/>
  <path id="path3243" style="opacity:.2;fill-rule:evenodd" d="m-33.281 16.312l-2.969 2.969 6.125 6.094c0.188 0.191 0.188 0.497 0 0.687l-6.125 6.094 2.969 2.969 6.093-6.094c0.191-0.188 0.497-0.188 0.688 0l6.094 6.094 2.968-2.969-6.093-6.094c-0.188-0.19-0.188-0.496 0-0.687l6.093-6.094-2.968-2.969-6.094 6.094c-0.191 0.188-0.497 0.188-0.688 0l-6.093-6.094z" transform="translate(50.844 -2.125)"/>
  <path id="path3256" style="fill:#fff;fill-rule:evenodd" d="m-33.281 16.312l-2.969 2.969 6.125 6.094c0.188 0.191 0.188 0.497 0 0.687l-6.125 6.094 2.969 2.969 6.093-6.094c0.191-0.188 0.497-0.188 0.688 0l6.094 6.094 2.968-2.969-6.093-6.094c-0.188-0.19-0.188-0.496 0-0.687l6.093-6.094-2.968-2.969-6.094 6.094c-0.191 0.188-0.497 0.188-0.688 0l-6.093-6.094z" transform="translate(50.844 -1.125)"/>
 </g>
</svg>
